X:860
T: Dimmers [The]
T: Maolaitheoir\'i [Na]
S: B.Breathnach:"Ceol Rince na hEireann" IV/100
Z: B.Black
L: 1/8
M: 4/4
R: reel
K: G
G3A GFED|(3EFG Ac BGGc|Bcdg ecdB|cABG DcBA|
G3A GFED|(3EFG Ac BGGc|Bcdg ecdB|cABG E2 D2 ||
Bddc BGGc|Bcdg eAAc|Bcdg ecdB|cABG E2 D2|
Bddc BGGc|Bcdg eAAc|(3Bcd ef gedB|cABG DcBA ||
